icons/assets/Group 644.svg

<svg width="78" height="76" viewBox="0 0 78 76" fill="none" xmlns="http://www.w3.org/2000/svg">
<path d="M17.5 0L32.6554 26.25H2.34456L17.5 0Z" fill="#FD8282"/>
<path fill-rule="evenodd" clip-rule="evenodd" d="M13.7619 58.4283H66.2378V19.7619H13.7619V58.4283ZM67.6187 61.1902H12.3809C11.6173 61.1902 11 60.5729 11 59.8093V18.3809C11 17.6173 11.6173 17 12.3809 17H67.6187C68.3824 17 68.9997 17.6173 68.9997 18.3809V59.8093C68.9997 60.5729 68.3824 61.1902 67.6187 61.1902Z" fill="#0A3B70"/>
<path fill-rule="evenodd" clip-rule="evenodd" d="M67.6187 32.1904H12.3809C11.6173 32.1904 11 31.5731 11 30.8094C11 30.0457 11.6173 29.4285 12.3809 29.4285H67.6187C68.3824 29.4285 68.9997 30.0457 68.9997 30.8094C68.9997 31.5731 68.3824 32.1904 67.6187 32.1904Z" fill="#0A3B70"/>
<path fill-rule="evenodd" clip-rule="evenodd" d="M52.4278 61.1902C51.6642 61.1902 51.0469 60.5729 51.0469 59.8092V30.8094C51.0469 30.0457 51.6642 29.4285 52.4278 29.4285C53.1915 29.4285 53.8088 30.0457 53.8088 30.8094V59.8092C53.8088 60.5729 53.1915 61.1902 52.4278 61.1902Z" fill="#0A3B70"/>
<path fill-rule="evenodd" clip-rule="evenodd" d="M22.7384 54.9759C21.9747 54.9759 21.3574 54.3586 21.3574 53.595V41.9964C21.3574 41.2328 21.9747 40.6155 22.7384 40.6155C23.502 40.6155 24.1193 41.2328 24.1193 41.9964V53.595C24.1193 54.3586 23.502 54.9759 22.7384 54.9759Z" fill="#0A3B70"/>
<path fill-rule="evenodd" clip-rule="evenodd" d="M29.1837 54.9758C28.42 54.9758 27.8027 54.3585 27.8027 53.5949V37.0235C27.8027 36.2599 28.42 35.6426 29.1837 35.6426C29.9473 35.6426 30.5646 36.2599 30.5646 37.0235V53.5949C30.5646 54.3585 29.9473 54.9758 29.1837 54.9758Z" fill="#0A3B70"/>
<path fill-rule="evenodd" clip-rule="evenodd" d="M42.0704 54.9759C41.3067 54.9759 40.6895 54.3586 40.6895 53.595V41.9964C40.6895 41.2328 41.3067 40.6155 42.0704 40.6155C42.8341 40.6155 43.4513 41.2328 43.4513 41.9964V53.595C43.4513 54.3586 42.8341 54.9759 42.0704 54.9759Z" fill="#0A3B70"/>
<path fill-rule="evenodd" clip-rule="evenodd" d="M35.627 54.9756C34.8634 54.9756 34.2461 54.3583 34.2461 53.5947V46.9661C34.2461 46.2025 34.8634 45.5852 35.627 45.5852C36.3907 45.5852 37.008 46.2025 37.008 46.9661V53.5947C37.008 54.3583 36.3907 54.9756 35.627 54.9756Z" fill="#0A3B70"/>
</svg>

<?xml version="1.0" encoding="utf-8"?>
<!-- Generator: Adobe Illustrator 26.0.1, SVG Export Plug-In . SVG Version: 6.00 Build 0)  -->
<svg version="1.1" id="Layer_1" xmlns="http://www.w3.org/2000/svg" xmlns:xlink="http://www.w3.org/1999/xlink" x="0px" y="0px"
	 viewBox="0 0 78 76" style="enable-background:new 0 0 78 76;" xml:space="preserve">
<style type="text/css">
	.st0{fill:#ED8885;}
	.st1{fill-rule:evenodd;clip-rule:evenodd;fill:#0A3B70;}
</style>
<polygon class="st0" points="17.5,0 2.3,26.3 32.7,26.3 "/>
<path class="st1" d="M13.8,58.4h52.5V19.8H13.8V58.4z M67.6,61.2H12.4c-0.8,0-1.4-0.6-1.4-1.4V18.4c0-0.8,0.6-1.4,1.4-1.4h55.2
	c0.8,0,1.4,0.6,1.4,1.4v41.4C69,60.6,68.4,61.2,67.6,61.2z"/>
<path class="st1" d="M67.6,32.2H12.4c-0.8,0-1.4-0.6-1.4-1.4c0-0.8,0.6-1.4,1.4-1.4h55.2c0.8,0,1.4,0.6,1.4,1.4
	C69,31.6,68.4,32.2,67.6,32.2z"/>
<path class="st1" d="M52.4,61.2c-0.8,0-1.4-0.6-1.4-1.4v-29c0-0.8,0.6-1.4,1.4-1.4c0.8,0,1.4,0.6,1.4,1.4v29
	C53.8,60.6,53.2,61.2,52.4,61.2z"/>
<path class="st1" d="M22.7,55c-0.8,0-1.4-0.6-1.4-1.4V42c0-0.8,0.6-1.4,1.4-1.4c0.8,0,1.4,0.6,1.4,1.4v11.6
	C24.1,54.4,23.5,55,22.7,55z"/>
<path class="st1" d="M29.2,55c-0.8,0-1.4-0.6-1.4-1.4V37c0-0.8,0.6-1.4,1.4-1.4c0.8,0,1.4,0.6,1.4,1.4v16.6
	C30.6,54.4,29.9,55,29.2,55z"/>
<path class="st1" d="M42.1,55c-0.8,0-1.4-0.6-1.4-1.4V42c0-0.8,0.6-1.4,1.4-1.4s1.4,0.6,1.4,1.4v11.6C43.5,54.4,42.8,55,42.1,55z"/>
<path class="st1" d="M35.6,55c-0.8,0-1.4-0.6-1.4-1.4V47c0-0.8,0.6-1.4,1.4-1.4c0.8,0,1.4,0.6,1.4,1.4v6.6C37,54.4,36.4,55,35.6,55z
	"/>
</svg>
